X: 28975
T: Napoleon In Morocco
R: reel
M: 4/4
K: Gminor
Addc dfed|dccA G2de|eddc cAAG|AdAG A4|
Addc dfed|dccA G2de|eddc cAAG|AdAG A2 G2:|
^FGAG ^FGAG|^FGA^F _e2 cd|d2 cB c2 BA|cBAB A2 c2|
^FGAG ^FGAG|^FGA^F _e2 cd|d2 cB c2 BA|cBAB A4:|

